X:377
T: Leichter Abschied (104), S. 255f
N: T0266
O: Luxemburg
S: Singendes Volk, Esch-Alzette 1937 posth.]
N: Burglinster, hhh Eugen Lemmer (Lehrer, Esch-Alzette), 1914
R: Liebeslieder]
M: 2/4
L: 1/8
K: F
C | F2F2 | A2FA | c2cB | A2z2
c3A | F3d | cABG | F2z2
A2A2 | G2GA | B2B2 | A2z2
c2f2 | d2cB | A2G2 | F2z

